images/lun.svg

<svg height="250" viewBox="0 0 250 250" width="250" xmlns="http://www.w3.org/2000/svg"><path d="m250 125c0 69.035156-55.964844 125-125 125s-125-55.964844-125-125 55.964844-125 125-125 125 55.964844 125 125zm0 0" fill="#f55749"/><path d="m123.539062 47.25c.902344-.503906 2.003907-.503906 2.90625 0l64.257813 36.078125c.894531.492187 1.449219 1.433594 1.453125 2.453125 0 1.015625-.546875 1.953125-1.445312 2.453125l-55.898438 31.515625c-1.972656-2.242188-4.65625-3.730469-7.601562-4.21875v-17.132812c6.054687-1.007813 10.671874-6.132813 10.671874-12.328126 0-6.914062-5.75-12.523437-12.851562-12.523437s-12.851562 5.609375-12.851562 12.523437c0 6.15625 4.570312 11.265626 10.578124 12.3125v17.171876c-2.90625.5-5.550781 1.976562-7.5 4.1875l-55.890624-31.382813c-.898438-.488281-1.457032-1.429687-1.457032-2.449219-.003906-1.023437.554688-1.964844 1.449219-2.457031l64.1875-36.179687m67.34375 45.445312c.902344-.511719 2.003906-.511719 2.90625-.007812.894531.492187 1.453125 1.429687 1.460937 2.453124l.054688 70.046876c0 1.015624-.546875 1.945312-1.453125 2.453124l-62.226563 35.078126c-1.929687 1.09375-4.351562-.273438-4.351562-2.453126l-.054688-60.101562c3.015626-.5 5.75-2.039062 7.710938-4.335938l15.546875 8.710938c-.429687 1.597656-.527344 3.269531-.289063 4.90625.984376 6.851562 7.492188 11.617188 14.515626 10.65625 7.03125-.96875 11.921874-7.304688 10.9375-14.15625-.984376-6.851562-7.5-11.617188-14.523438-10.648438-3.527344.472657-6.703125 2.386719-8.765625 5.289063l-15.234375-8.539063c1.09375-2.898437 1.015625-6.09375-.195312-8.945312l53.96875-30.421875m-136.148438 2.453125c0-1.65625 1.390625-2.835938 2.90625-2.835938.507812 0 1.015625.132813 1.453125.390626l54.023437 30.453124c-1.195312 2.84375-1.257812 6.015626-.179687 8.90625l-15.226563 8.539063c-2.0625-2.902344-5.238281-4.816406-8.765624-5.289063-7.03125-.96875-13.523438 3.804688-14.515626 10.648438-.992187 6.84375 3.90625 13.179688 10.9375 14.148438s13.515626-3.804688 14.515626-10.648438c.238281-1.640625.140624-3.3125-.289063-4.914062l15.539063-8.710938c1.945312 2.28125 4.648437 3.8125 7.632812 4.328125l-.046875 60.117187c0 2.179688-2.421875 3.539063-4.359375 2.445313l-62.234375-35.078125c-.894531-.492188-1.449219-1.433594-1.453125-2.453125z" fill="#fff"/></svg>

<svg xmlns="http://www.w3.org/2000/svg" xmlns:xlink="http://www.w3.org/1999/xlink" width="250px" height="250px" viewBox="0 0 250 250" version="1.1">
<g id="surface1">
<path style=" stroke:none;fill-rule:nonzero;fill:rgb(96.078432%,34.117648%,28.627452%);fill-opacity:1;" d="M 250 125 C 250 194.035156 194.035156 250 125 250 C 55.964844 250 0 194.035156 0 125 C 0 55.964844 55.964844 0 125 0 C 194.035156 0 250 55.964844 250 125 Z M 250 125 "/>
<path style=" stroke:none;fill-rule:nonzero;fill:rgb(100%,100%,100%);fill-opacity:1;" d="M 123.539062 47.25 C 124.441406 46.746094 125.542969 46.746094 126.445312 47.25 L 190.703125 83.328125 C 191.597656 83.820312 192.152344 84.761719 192.15625 85.78125 C 192.15625 86.796875 191.609375 87.734375 190.710938 88.234375 L 134.8125 119.75 C 132.839844 117.507812 130.15625 116.019531 127.210938 115.53125 L 127.210938 98.398438 C 133.265625 97.390625 137.882812 92.265625 137.882812 86.070312 C 137.882812 79.15625 132.132812 73.546875 125.03125 73.546875 C 117.929688 73.546875 112.179688 79.15625 112.179688 86.070312 C 112.179688 92.226562 116.75 97.335938 122.757812 98.382812 L 122.757812 115.554688 C 119.851562 116.054688 117.207031 117.53125 115.257812 119.742188 L 59.367188 88.359375 C 58.46875 87.871094 57.910156 86.929688 57.910156 85.910156 C 57.90625 84.886719 58.464844 83.945312 59.359375 83.453125 L 123.546875 47.273438 M 190.890625 92.71875 C 191.792969 92.207031 192.894531 92.207031 193.796875 92.710938 C 194.691406 93.203125 195.25 94.140625 195.257812 95.164062 L 195.3125 165.210938 C 195.3125 166.226562 194.765625 167.15625 193.859375 167.664062 L 131.632812 202.742188 C 129.703125 203.835938 127.28125 202.46875 127.28125 200.289062 L 127.226562 140.1875 C 130.242188 139.6875 132.976562 138.148438 134.9375 135.851562 L 150.484375 144.5625 C 150.054688 146.160156 149.957031 147.832031 150.195312 149.46875 C 151.179688 156.320312 157.6875 161.085938 164.710938 160.125 C 171.742188 159.15625 176.632812 152.820312 175.648438 145.96875 C 174.664062 139.117188 168.148438 134.351562 161.125 135.320312 C 157.597656 135.792969 154.421875 137.707031 152.359375 140.609375 L 137.125 132.070312 C 138.21875 129.171875 138.140625 125.976562 136.929688 123.125 L 190.898438 92.703125 M 54.75 95.15625 C 54.75 93.5 56.140625 92.320312 57.65625 92.320312 C 58.164062 92.320312 58.671875 92.453125 59.109375 92.710938 L 113.132812 123.164062 C 111.9375 126.007812 111.875 129.179688 112.953125 132.070312 L 97.726562 140.609375 C 95.664062 137.707031 92.488281 135.792969 88.960938 135.320312 C 81.929688 134.351562 75.4375 139.125 74.445312 145.96875 C 73.453125 152.8125 78.351562 159.148438 85.382812 160.117188 C 92.414062 161.085938 98.898438 156.3125 99.898438 149.46875 C 100.136719 147.828125 100.039062 146.15625 99.609375 144.554688 L 115.148438 135.84375 C 117.09375 138.125 119.796875 139.65625 122.78125 140.171875 L 122.734375 200.289062 C 122.734375 202.46875 120.3125 203.828125 118.375 202.734375 L 56.140625 167.65625 C 55.246094 167.164062 54.691406 166.222656 54.6875 165.203125 L 54.75 95.15625 "/>
</g>
</svg>
